X:1
T:There Is Joy in My Soul Today
T:There Is Joy in My Soul Today
T:John Henry Showalter
T:George W. Lyon, 1904
T:Public Domain Courtesy of the Cyber Hymnal™
T:Public Domain Courtesy of the Cyber Hymnal™
C:John Henry Showalter
Z:Public Domain
Z:Courtesy of the Cyber Hymnal™
%%score ( 1 2 ) ( 3 4 )
L:1/8
Q:1/4=100
M:4/4
K:G
V:1 treble 
V:2 treble 
V:3 bass 
V:4 bass 
V:1
 [DB]3 [DB] [Ec][DB][CA][B,G] | [B,G]3 [A,F] [CF]4 | [CA]3 [CA] [DB][CA][CA][B,G] | %3
w: 1.~There is joy with- in my|soul to- day,|And my life is filled with|
w: 2.~Thro’ the clouds that ma- ny|times a- rise,|O’er the bil- lows of life’s|
w: 3.~So I glad- ly trust and|press a- long,|In my jour- ney to the|
 [B,G]3 [CA] [DB]4 | [DB]3 [DB] [Ec][DB][Ge][DB] | [=Fd]2 [Ec]2 [EG]2 [CE]>[CE] | %6
w: won- drous light;|From the throne of Him who|reigns a- bove, Com- eth|
w: rest- less sea,|Shines the glo- ry of the|Sav- ior’s face, As a|
w: goal a- bove,|Shield- ed by His arm from|day to day, Cheered by|
 [B,D]3 [DB] [CB][CA][CD][CA] | G6 ||"^Refrain" B>B | (z2 c>)c x6 | (z2 [GB]>)[Fc] x6 | %11
w: peace that makes my path- way|bright.|There is|* joy,|* there|
w: bless- èd bea- con light for|me.||||
w: His sweet pre- sence and His|love.||||
 [Gd]3 [GB] G[GB][DA][EG] | [FA]6 D>[CD] | G6 [DB]>[=Fd] | [=Fd]2 [Ec]2 [Ec]2 [EG]>[EA] | %15
w: is joy, There is joy with-|in my soul|to- day; There|is joy, there is sweet-|
w: ||||
w: ||||
 [DB]3 [Ec] [DB][CA][CD][CA] | !fermata!G6 |] %17
w: est joy, There is joy with-|in|
w: ||
w: ||
V:2
 x8 | x8 | x8 | x8 | x8 | x8 | x8 | (B,2 C2 B,2) || x2 | (A6 F>F F2) | (B6 G>G G2) | x4 G x3 | %12
 x6 D3/2 x/ | (B,2 D>D D2) x2 | x8 | x8 | (B,2 E2 D2) |] %17
V:3
 (G,,2 G,2) G,,2 G,2 | (D,,2 D,2) (D,,2 D,2) | (D,,2 D,2) D,,2 D,2 | (G,,2 G,2) (G,,2 G,2) | %4
w: ~ * ~ ~|~ * ~ *|~ * ~ ~|~ * ~ *|
 (G,,2 G,2) G,,2 G,2 | C,,2 C,2 C,,2 C,2 | (D,,2 D,2) D,,2 D,2 | (z2 E,2 D,2) || D>D | z2 E>E x6 | %10
w: ~ * ~ ~|~ ~ ~ ~|~ * ~ ~||* ~|~ ~|
 z2 [G,D]>[A,D] x6 | [B,D]3 [G,D] [B,D][G,D][F,D][E,^C] | D6 [A,,F,]>[A,,F,] | %13
w: ~ There|is joy, ~ ~ ~ there|is joy, ~|
 [G,,G,]2 [G,B,]>[G,B,] [G,B,]2 G,>[B,,G,] | [C,G,]2 [C,G,]2 [C,G,]2 [C,G,]>[C,G,] | %15
w: ~ ~ ~ ~ ~ ~|~ ~ to- day, ~|
 [D,G,]3 [D,F,] [D,F,][D,F,][D,F,][D,F,] | !fermata!G,2 C2 !fermata!B,2 |] %17
w: ~ ~ There is joy, ~|~ ~ ~|
V:4
 x8 | x8 | x8 | x8 | x8 | x8 | x8 | G,,6 || x2 | C6 D,>D, D,2 | D6 G,>G, G,2 | x8 | %12
 D,2 C,2 B,,2 x2 | x6 G,3/2 x/ | x8 | x8 | G,,6 |] %17

